modules/hawcons-stroke/icons/baseball.svg

<?xml version="1.0" encoding="UTF-8" standalone="no"?>
<svg width="32px" height="32px" viewBox="0 0 32 32" version="1.1" xmlns="http://www.w3.org/2000/svg" xmlns:xlink="http://www.w3.org/1999/xlink" xmlns:sketch="http://www.bohemiancoding.com/sketch/ns">
    <!-- Generator: Sketch 3.0.3 (7891) - http://www.bohemiancoding.com/sketch -->
    <title>icon 2 baseball</title>
    <desc>Created with Sketch.</desc>
    <defs></defs>
    <g id="Page-1" stroke="none" stroke-width="1" fill="none" fill-rule="evenodd" sketch:type="MSPage">
        <g id="icon-2-baseball" sketch:type="MSArtboardGroup" fill="#929292">
            <path d="M8.70589371,24.9559607 C10.7550564,26.8456862 13.4927259,28 16.5,28 C19.5072741,28 22.2449436,26.8456862 24.2941063,24.9559607 L24.2941063,24.9559607 C24.0200956,24.6578054 23.7603821,24.3463021 23.5160528,24.0225379 L22.7803552,24.5570535 L22.19257,23.7480365 L22.9458658,23.200735 C22.449463,22.4204959 22.0372016,21.5814887 21.7218571,20.6964887 L20.7917178,20.9987092 L20.4827008,20.0476527 L21.4244372,19.741664 C21.1889513,18.8622459 21.0469752,17.9445884 21.0098172,17 L20,17 L20,16 L21.0098172,16 C21.0469752,15.0554116 21.1889513,14.1377541 21.4244372,13.258336 L21.4244372,13.258336 L20.4827008,12.9523473 L20.7917178,12.0012908 L21.7218571,12.3035113 C22.0372016,11.4185113 22.449463,10.5795041 22.9458658,9.799265 L22.19257,9.25196354 L22.7803552,8.44294654 L23.5160528,8.97746215 C23.7603821,8.65369788 24.0200956,8.34219461 24.2941063,8.04403932 C22.2449436,6.15431385 19.5072741,5 16.5,5 C13.4927259,5 10.7550564,6.15431385 8.70589371,8.04403932 C8.97990443,8.34219461 9.23961791,8.65369788 9.48394718,8.97746215 L10.2196448,8.44294654 L10.80743,9.25196354 L10.0541342,9.799265 L10.0541342,9.799265 C10.550537,10.5795041 10.9627984,11.4185113 11.2781429,12.3035113 L11.2781429,12.3035113 L12.2082822,12.0012908 L12.5172992,12.9523473 L11.5755628,13.258336 C11.8110487,14.1377541 11.9530248,15.0554116 11.9901828,16 L11.9901828,16 L13,16 L13,17 L11.9901828,17 C11.9530248,17.9445884 11.8110487,18.8622459 11.5755628,19.741664 L12.5172992,20.0476527 L12.2082822,20.9987092 L11.2781429,20.6964887 C10.9627984,21.5814887 10.550537,22.4204959 10.0541342,23.200735 L10.0541342,23.200735 L10.80743,23.7480365 L10.2196448,24.5570535 L9.48394718,24.0225379 C9.23961791,24.3463021 8.97990443,24.6578054 8.70589369,24.9559607 L8.70589371,24.9559607 Z M8,24.2460807 C6.13639541,22.2022641 5,19.4838418 5,16.5 C5,13.5161582 6.13639541,10.7977359 8,8.75391932 C8.23695,9.01378255 8.46214384,9.28455155 8.67474046,9.56538524 L7.79259381,10.2063023 L8.38037906,11.0153193 L9.2433343,10.3883456 C9.68016954,11.0832931 10.0447133,11.8282758 10.3264176,12.6127457 L9.35511269,12.9283418 L9.66412968,13.8793983 L10.622844,13.5678931 C10.8282535,14.3492105 10.9535206,15.1630192 10.9893258,16 L10,16 L10,17 L10.9893258,17 C10.9535206,17.8369808 10.8282535,18.6507895 10.622844,19.4321069 L10.622844,19.4321069 L9.66412968,19.1206017 L9.35511269,20.0716582 L10.3264176,20.3872543 C10.0447133,21.1717242 9.68016954,21.9167069 9.2433343,22.6116544 L8.38037906,21.9846807 L7.79259381,22.7936977 L8.67474046,23.4346148 C8.46214384,23.7154485 8.23695,23.9862174 8,24.2460807 L8,24.2460807 Z M25,24.2460807 C26.8636046,22.2022641 28,19.4838418 28,16.5 C28,13.5161582 26.8636046,10.7977359 25,8.75391932 C24.76305,9.01378255 24.5378562,9.28455155 24.3252595,9.56538524 L25.2074062,10.2063023 L24.6196209,11.0153193 L23.7566657,10.3883456 L23.7566657,10.3883456 C23.3198305,11.0832931 22.9552867,11.8282758 22.6735824,12.6127457 L23.6448873,12.9283418 L23.3358703,13.8793983 L22.377156,13.5678931 C22.1717465,14.3492105 22.0464794,15.1630192 22.0106742,16 L23,16 L23,17 L22.0106743,17 L22.0106742,17 C22.0464794,17.8369808 22.1717465,18.6507895 22.377156,19.4321069 L22.377156,19.4321069 L23.3358703,19.1206017 L23.6448873,20.0716582 L22.6735824,20.3872543 C22.9552867,21.1717242 23.3198305,21.9167069 23.7566657,22.6116544 L24.6196209,21.9846807 L25.2074062,22.7936977 L24.3252595,23.4346148 L24.3252595,23.4346148 C24.5378562,23.7154485 24.76305,23.9862174 25,24.2460807 L25,24.2460807 L25,24.2460807 Z M16.5,29 C23.4035597,29 29,23.4035597 29,16.5 C29,9.59644029 23.4035597,4 16.5,4 C9.59644029,4 4,9.59644029 4,16.5 C4,23.4035597 9.59644029,29 16.5,29 L16.5,29 Z" id="baseball" sketch:type="MSShapeGroup"></path>
        </g>
    </g>
</svg>

<svg width="32" height="32" xmlns="http://www.w3.org/2000/svg"><path d="M8.706 24.956A11.459 11.459 0 0 0 16.5 28c3.007 0 5.745-1.154 7.794-3.044-.274-.298-.534-.61-.778-.933l-.736.534-.587-.809.753-.547a12.45 12.45 0 0 1-1.224-2.505l-.93.303-.31-.951.942-.306A12.488 12.488 0 0 1 21.01 17H20v-1h1.01c.037-.945.179-1.862.414-2.742l-.941-.306.309-.95.93.302a12.45 12.45 0 0 1 1.224-2.505l-.753-.547.587-.81.736.535c.244-.323.504-.635.778-.933A11.459 11.459 0 0 0 16.5 5a11.459 11.459 0 0 0-7.794 3.044c.274.298.534.61.778.933l.736-.534.587.809-.753.547c.497.78.909 1.62 1.224 2.505l.93-.303.31.951-.942.306c.235.88.377 1.797.414 2.742H13v1h-1.01c-.037.945-.179 1.862-.414 2.742l.941.306-.309.95-.93-.302a12.45 12.45 0 0 1-1.224 2.505l.753.547-.587.81-.736-.535c-.244.323-.504.635-.778.933zM8 24.246A11.458 11.458 0 0 1 5 16.5c0-2.984 1.136-5.702 3-7.746.237.26.462.53.675.811l-.882.641.587.81.863-.628c.437.695.802 1.44 1.083 2.225l-.97.315.308.951.959-.311c.205.781.33 1.595.366 2.432H10v1h.99c-.036.837-.162 1.65-.367 2.432l-.959-.311-.309.95.971.316c-.281.785-.646 1.53-1.083 2.225l-.863-.627-.587.809.882.64c-.213.281-.438.552-.675.812zm17 0c1.864-2.044 3-4.762 3-7.746 0-2.984-1.136-5.702-3-7.746-.237.26-.462.53-.675.811l.882.641-.587.81-.863-.628c-.437.695-.802 1.44-1.083 2.225l.97.315-.308.951-.959-.311c-.205.781-.33 1.595-.366 2.432H23v1h-.99c.036.837.162 1.65.367 2.432l.959-.311.309.95-.971.316c.281.785.646 1.53 1.083 2.225l.863-.627.587.809-.882.64c.213.281.438.552.675.812zM16.5 29C23.404 29 29 23.404 29 16.5S23.404 4 16.5 4 4 9.596 4 16.5 9.596 29 16.5 29z" fill="#929292" fill-rule="evenodd"/></svg>
